dist/images/barber.svg

<svg height="512pt" viewBox="-106 0 512 512" width="512pt" xmlns="http://www.w3.org/2000/svg"
     fill="aqua"><path d="m120 151v20.726562l150 75v-26.453124l-138.546875-69.273438zm0 0"/><path d="m120 231.726562 150 75v-26.453124l-150-75zm0 0"/><path d="m120 361h71.453125l-71.453125-35.726562zm0 0"/><path d="m270 151h-71.453125l71.453125 35.726562zm0 0"/><path d="m120 291.726562 138.546875 69.273438h11.453125v-20.726562l-150-75zm0 0"/><path d="m105 451h5.363281c12.554688 35.355469 46.253907 61 84.636719 61s72.082031-25.644531 84.636719-61h5.363281c8.289062 0 15-6.710938 15-15v-45h-270v-15c0-8.289062-6.710938-15-15-15s-15 6.710938-15 15v60c0 8.289062 6.710938 15 15 15s15-6.710938 15-15v-15h60v15c0 8.289062 6.710938 15 15 15zm0 0"/><path d="m300 76c0-8.289062-6.710938-15-15-15h-5.363281c-12.554688-35.355469-46.253907-61-84.636719-61s-72.082031 25.644531-84.636719 61h-5.363281c-8.289062 0-15 6.710938-15 15v15h-60v-15c0-8.289062-6.710938-15-15-15s-15 6.710938-15 15v60c0 8.289062 6.710938 15 15 15s15-6.710938 15-15v-15h270zm0 0" /></svg>

<svg height="512pt" viewBox="-106 0 512 512" width="512pt" xmlns="http://www.w3.org/2000/svg" fill="#0ff"><path d="M120 151v20.727l150 75v-26.454L131.453 151zm0 0M120 231.727l150 75v-26.454l-150-75zm0 0M120 361h71.453L120 325.273zm0 0M270 151h-71.453L270 186.727zm0 0M120 291.727L258.547 361H270v-20.727l-150-75zm0 0M105 451h5.363c12.555 35.355 46.254 61 84.637 61s72.082-25.645 84.637-61H285c8.29 0 15-6.71 15-15v-45H30v-15c0-8.29-6.71-15-15-15s-15 6.71-15 15v60c0 8.29 6.71 15 15 15s15-6.71 15-15v-15h60v15c0 8.29 6.71 15 15 15zm0 0M300 76c0-8.29-6.71-15-15-15h-5.363C267.082 25.645 233.383 0 195 0s-72.082 25.645-84.637 61H105c-8.29 0-15 6.71-15 15v15H30V76c0-8.29-6.71-15-15-15S0 67.71 0 76v60c0 8.29 6.71 15 15 15s15-6.71 15-15v-15h270zm0 0"/></svg>
